X:1
T:[ID 7-104]
T:[ID 7-104]
T:Bezeichnung standardisiert: Anglaise Angelois\`e
T:Urheber unbekannt Datum in der hier transkribierten schriftlichen Quelle: 1776 - 1791
C:Urheber unbekannt
C:Datum in der hier transkribierten schriftlichen Quelle: 1776 - 1791
L:1/8
M:2/4
K:D
V:1 treble 
V:1
 D/D/D/D/ D/D/D/D/ | F/D/D/D/ A/D/D/D/ | d2 a2 | g2 e2 | A,/A,/A,/A,/ A,/A,/A,/A,/ | A,2 g>e | %6
 [Fd]2 [Fd]>[Fd] | [Fd]2 z2 :: Ae/f/ g/f/e/d/ | c/d/e/d/ c/B/A/G/ | F/D/E/F/ G/A/B/c/ | %11
 d/e/f/g/ af | f(e/f/) g/f/e/d/ | c/d/e/d/ c/B/A/G/ | [A,F]2 [Fd]>[Fd] | [Fd]2 z2 :: a2 a/b/a/g/ | %17
 f>dfa | g2 g/a/g/f/ | e2 z2 | f2 f/g/f/e/ | d2 d2 | cece | d2 z2 :| %24

